images/icons/links/vk.svg

<svg width="30" height="30" viewBox="0 0 30 30" fill="none" xmlns="http://www.w3.org/2000/svg">
<circle cx="15" cy="15" r="15" fill="#7294C7"/>
<path d="M22.3546 18.8364C22.3546 18.7742 22.2924 18.7742 22.2924 18.7119C22.0433 18.2138 21.4829 17.5911 20.7357 16.9062C20.3621 16.5948 20.1753 16.3458 20.0507 16.2212C19.8639 15.9722 19.864 15.7854 19.9262 15.5363C19.9885 15.3495 20.2375 15.0381 20.6734 14.4777C20.9225 14.1664 21.047 13.9796 21.2338 13.7928C22.1678 12.5475 22.6037 11.738 22.4792 11.3644L22.4169 11.3021C22.3546 11.2398 22.2924 11.1776 22.1678 11.1776C22.0433 11.1153 21.8565 11.1153 21.6697 11.1776H19.3035C19.2413 11.1776 19.2413 11.1776 19.1167 11.1776C19.0545 11.1776 18.9922 11.1776 18.9922 11.1776H18.9299H18.8677L18.8054 11.2398C18.7431 11.3021 18.7431 11.3021 18.7431 11.3644C18.4941 12.0493 18.1827 12.6097 17.8714 13.2324C17.6846 13.5437 17.4978 13.8551 17.311 14.1041C17.1242 14.3532 16.9996 14.54 16.8751 14.6645C16.7506 14.7891 16.626 14.8513 16.5638 14.9759C16.5015 15.0381 16.377 15.1004 16.377 15.0381C16.3147 15.0381 16.2524 15.0381 16.2524 14.9759C16.1902 14.9136 16.1279 14.8513 16.0656 14.7891C16.0034 14.7268 16.0034 14.6023 15.9411 14.4777C15.9411 14.3532 15.9411 14.2287 15.9411 14.1664C15.9411 14.1041 15.9411 13.9173 15.9411 13.7928C15.9411 13.606 15.9411 13.4815 15.9411 13.4192C15.9411 13.2324 15.9411 12.9833 15.9411 12.7343C15.9411 12.4852 15.9411 12.2984 15.9411 12.1739C15.9411 12.0493 15.9411 11.8625 15.9411 11.738C15.9411 11.5512 15.9411 11.4266 15.9411 11.3644C15.9411 11.3021 15.8789 11.1776 15.8789 11.1153C15.8166 11.053 15.7543 10.9908 15.692 10.9285C15.6298 10.8662 15.5052 10.8662 15.443 10.804C15.1316 10.7417 14.758 10.6794 14.3222 10.6794C13.3259 10.6794 12.641 10.7417 12.3919 10.8662C12.2673 10.9285 12.1428 10.9908 12.0805 11.1153C11.956 11.2398 11.956 11.3021 12.0183 11.3021C12.3296 11.3644 12.5787 11.4889 12.7032 11.6757L12.7655 11.8003C12.8278 11.8625 12.8277 11.9871 12.89 12.1739C12.9523 12.3607 12.9523 12.5475 12.9523 12.7965C12.9523 13.1701 12.9523 13.5437 12.9523 13.7928C12.9523 14.1041 12.89 14.2909 12.89 14.4777C12.89 14.6645 12.8278 14.7891 12.7655 14.8513C12.7032 14.9759 12.7032 15.0381 12.6409 15.0381C12.6409 15.0381 12.6409 15.1004 12.5787 15.1004C12.5164 15.1004 12.4541 15.1627 12.3296 15.1627C12.2673 15.1627 12.1428 15.1004 12.0805 15.0381C11.956 14.9759 11.8315 14.8513 11.7692 14.7268C11.6447 14.6023 11.5201 14.4155 11.3956 14.1664C11.2711 13.9173 11.0843 13.6683 10.9597 13.2947L10.8352 13.0456C10.7729 12.9211 10.6484 12.672 10.5239 12.3607C10.3993 12.0493 10.2748 11.8003 10.1503 11.4889C10.088 11.3644 10.0257 11.3021 9.96347 11.2398H9.9012C9.9012 11.2398 9.83892 11.1776 9.77665 11.1776C9.71439 11.1776 9.65213 11.1153 9.58986 11.1153H7.34824C7.09917 11.1153 6.97464 11.1776 6.91237 11.2398L6.8501 11.3021C6.8501 11.3021 6.8501 11.3644 6.8501 11.4266C6.8501 11.4889 6.8501 11.5512 6.91237 11.6757C7.2237 12.4229 7.59731 13.1701 7.97091 13.9173C8.34451 14.6023 8.71812 15.2249 8.96719 15.6608C9.27852 16.0967 9.52759 16.5326 9.83892 16.9062C10.1503 17.2798 10.3371 17.5288 10.3993 17.6534C10.5239 17.7779 10.5861 17.8402 10.6484 17.9024L10.8352 18.0892C10.9597 18.2138 11.1465 18.4006 11.3956 18.5874C11.6447 18.7742 11.956 18.961 12.2673 19.1478C12.5787 19.3346 12.9523 19.4591 13.3259 19.5837C13.7618 19.7082 14.1354 19.7705 14.509 19.7082H15.443C15.6298 19.7082 15.7543 19.6459 15.8789 19.5214L15.9411 19.4591C15.9411 19.3968 16.0034 19.3968 16.0034 19.3346C16.0034 19.2723 16.0034 19.21 16.0034 19.0855C16.0034 18.8364 16.0034 18.6496 16.0656 18.4628C16.1279 18.276 16.1279 18.1515 16.1902 18.027C16.2525 17.9024 16.3147 17.8402 16.377 17.7779C16.4392 17.7156 16.5015 17.6534 16.5015 17.6534H16.5638C16.6883 17.5911 16.8751 17.6534 16.9997 17.7779C17.1865 17.9024 17.3732 18.0892 17.4978 18.276C17.6223 18.4628 17.8091 18.6496 18.0582 18.8987C18.3073 19.1478 18.4941 19.3346 18.6186 19.3969L18.8054 19.5214C18.9299 19.5837 19.0545 19.6459 19.2413 19.7082C19.4281 19.7705 19.5526 19.7704 19.6771 19.7704L21.7942 19.7082C21.981 19.7082 22.1678 19.6459 22.2924 19.5837C22.4169 19.5214 22.4792 19.4591 22.4792 19.3346C22.4792 19.2723 22.4792 19.1478 22.4792 19.0855C22.3546 18.961 22.3546 18.8987 22.3546 18.8364Z" fill="white"/>
</svg>

<svg width="30" height="30" fill="none" xmlns="http://www.w3.org/2000/svg"><circle cx="15" cy="15" r="15" fill="#7294C7"/><path d="M22.355 18.836c0-.062-.063-.062-.063-.124-.249-.498-.81-1.12-1.556-1.806-.374-.311-.56-.56-.685-.685-.187-.249-.187-.436-.125-.685.063-.186.312-.498.747-1.058.25-.312.374-.498.56-.685.935-1.245 1.37-2.055 1.246-2.429l-.062-.062c-.062-.062-.125-.124-.25-.124-.124-.063-.31-.063-.497 0h-2.802l-.063.062c-.062.062-.062.062-.062.124-.249.685-.56 1.246-.872 1.868-.186.312-.373.623-.56.872-.187.25-.311.436-.436.56-.124.125-.249.187-.311.312-.063.062-.187.124-.187.062-.062 0-.125 0-.125-.062l-.186-.187c-.063-.062-.063-.187-.125-.311v-3.114c0-.062-.062-.186-.062-.249l-.187-.187c-.062-.062-.187-.062-.249-.124a5.583 5.583 0 00-1.12-.125c-.997 0-1.682.063-1.931.187-.125.063-.25.125-.311.25-.125.124-.125.186-.063.186.312.062.56.187.685.374l.063.124c.062.063.062.187.124.374s.062.373.062.623v.996c0 .311-.062.498-.062.685 0 .187-.062.311-.125.373-.062.125-.062.187-.124.187 0 0 0 .062-.062.062-.063 0-.125.063-.25.063a.472.472 0 01-.248-.125.75.75 0 01-.312-.311 2.172 2.172 0 01-.373-.56c-.125-.25-.312-.499-.436-.872l-.125-.25a8.784 8.784 0 01-.311-.684c-.125-.312-.25-.56-.374-.872-.062-.125-.124-.187-.187-.25h-.062s-.062-.061-.124-.061c-.063 0-.125-.063-.187-.063H7.348c-.249 0-.373.063-.436.125l-.062.062v.125c0 .062 0 .124.062.249.312.747.685 1.494 1.059 2.241.374.685.747 1.308.996 1.744.312.436.56.872.872 1.245.311.374.498.623.56.747l.25.25.186.186c.125.125.311.312.56.498.25.187.561.374.872.56.312.188.685.312 1.059.437.436.124.81.186 1.183.124h.934a.566.566 0 00.436-.187l.062-.062c0-.062.062-.062.062-.124v-.25c0-.249 0-.435.063-.622.062-.187.062-.312.124-.436a.86.86 0 01.187-.25l.125-.124h.062c.124-.062.311 0 .436.125.186.124.373.311.498.498.124.187.311.374.56.623.25.249.436.436.56.498l.187.124c.125.063.25.125.436.187.187.063.312.062.436.062l2.117-.062c.187 0 .374-.062.498-.124.125-.063.187-.125.187-.25v-.248c-.124-.125-.124-.187-.124-.25z" fill="#fff"/></svg>
